.local/share/icons/Gruvbox-Plus-Dark/status/48/semi-starred.svg

<svg xmlns="http://www.w3.org/2000/svg" width="48" height="48" version="1">
    <path style="opacity:0.2"
        d="m 24,5.0002076 c -1.893179,0.026691 -3.243329,1.1515686 -3.876953,3.0136719 l 0.02344,-0.083984 -2.974609,9.0703129 -10.03125,0 c -0.02187,-3.46e-4 -0.042583,-3.46e-4 -0.064453,0 -1.197906,0.0383 -2.2780475,0.590003 -3.0390625,1.503906 -1.645849,1.863555 -1.2970123,4.795729 0.7929687,6.185547 l 7.8867189,5.685547 -3.060547,9.378906 c -0.0034,0.01038 -0.00657,0.02081 -0.00977,0.03125 -0.467655,1.515362 -0.027888,3.076558 1.1484376,4.144532 0.0085,0.0079 0.01864,0.01574 0.02734,0.02344 1.413575,1.239545 3.399732,1.397086 4.996093,0.371094 0.03037,-0.01938 0.06057,-0.03961 0.08984,-0.06055 L 24,38.500208 32.091797,44.26388 c 0.02927,0.02094 0.05947,0.04117 0.08984,0.06055 1.596361,1.025992 3.582518,0.868451 4.996093,-0.371094 0.0087,-0.0077 0.01879,-0.01556 0.02734,-0.02344 1.176326,-1.067974 1.616093,-2.62917 1.148438,-4.144532 -0.0032,-0.01044 -0.0064,-0.02087 -0.0098,-0.03125 l -3.060547,-9.378906 7.886719,-5.685547 c 2.089981,-1.389818 2.438818,-4.321992 0.792969,-6.185547 -0.761015,-0.913903 -1.841157,-1.465606 -3.039063,-1.503906 -0.02187,-3.46e-4 -0.04258,-3.46e-4 -0.06445,0 l -10.03125,0 -2.974609,-9.0703129 0.02344,0.083984 C 27.243329,6.1517762 25.893179,5.0268986 24,5.0002076 Z" />
    <path style="fill:#fabd2f"
        d="M 24 4 L 24 37.5 L 32.091797 43.263672 C 32.121067 43.284612 32.151271 43.304839 32.181641 43.324219 C 33.778002 44.350211 35.764159 44.19267 37.177734 42.953125 C 37.186434 42.945425 37.196528 42.937568 37.205078 42.929688 C 38.381404 41.861714 38.821171 40.300518 38.353516 38.785156 C 38.350316 38.774716 38.34715 38.764286 38.34375 38.753906 L 35.283203 29.375 L 43.169922 23.689453 C 45.259903 22.299635 45.60874 19.367461 43.962891 17.503906 C 43.201876 16.590003 42.121734 16.0383 40.923828 16 C 40.901958 15.999654 40.881245 15.999654 40.859375 16 L 30.828125 16 L 27.853516 6.9296875 L 27.876953 7.0136719 C 27.243329 5.1515686 25.893179 4.026691 24 4 z" />
    <path style="fill:#7c6f64"
        d="M 24 4 C 22.106821 4.026691 20.756671 5.1515686 20.123047 7.0136719 L 20.146484 6.9296875 L 17.171875 16 L 7.140625 16 C 7.118755 15.999654 7.0980419 15.999654 7.0761719 16 C 5.8782659 16.0383 4.7981244 16.590003 4.0371094 17.503906 C 2.3912604 19.367461 2.7400971 22.299635 4.8300781 23.689453 L 12.716797 29.375 L 9.65625 38.753906 C 9.65285 38.764286 9.6496844 38.774716 9.6464844 38.785156 C 9.1788294 40.300518 9.6185958 41.861714 10.794922 42.929688 C 10.803472 42.937568 10.813566 42.945425 10.822266 42.953125 C 12.235841 44.19267 14.221998 44.350211 15.818359 43.324219 C 15.848729 43.304839 15.878933 43.284612 15.908203 43.263672 L 24 37.5 L 24 4 z" />
    <path style="opacity:0.2;fill:#ebdbb2"
        d="M 24 4 C 22.106821 4.026691 20.756671 5.1515686 20.123047 7.0136719 L 20.146484 6.9296875 L 17.171875 16 L 7.140625 16 C 7.118755 15.999654 7.0980419 15.999654 7.0761719 16 C 5.8782659 16.0383 4.7981244 16.590003 4.0371094 17.503906 C 3.2103408 18.440036 2.8893345 19.644586 3.0371094 20.789062 C 3.1281185 19.970932 3.4500575 19.168611 4.0371094 18.503906 C 4.7981244 17.590003 5.8782659 17.0383 7.0761719 17 C 7.0980419 16.999654 7.118755 16.999654 7.140625 17 L 17.171875 17 L 20.146484 7.9296875 L 20.123047 8.0136719 C 20.756671 6.1515686 22.106821 5.026691 24 5 C 25.893179 5.026691 27.243365 6.151569 27.876953 8.0136719 L 27.853516 7.9296875 L 30.828125 17 L 40.859375 17 C 40.881245 16.999654 40.901958 16.999654 40.923828 17 C 42.121734 17.0383 43.201876 17.590003 43.962891 18.503906 C 44.549942 19.168611 44.871882 19.970932 44.962891 20.789062 C 45.110666 19.644586 44.789659 18.440036 43.962891 17.503906 C 43.201876 16.590003 42.121734 16.0383 40.923828 16 C 40.901958 15.999654 40.881245 15.999654 40.859375 16 L 30.828125 16 L 27.853516 6.9296875 L 27.876953 7.0136719 C 27.243329 5.1515686 25.893179 4.026691 24 4 z M 12.453125 30.183594 L 9.65625 38.753906 C 9.65285 38.764286 9.6496844 38.774716 9.6464844 38.785156 C 9.4679713 39.363599 9.423576 39.947948 9.5 40.509766 C 9.5291582 40.268599 9.5721045 40.026172 9.6464844 39.785156 C 9.6496844 39.774716 9.65285 39.764286 9.65625 39.753906 L 12.716797 30.375 L 12.453125 30.183594 z M 35.546875 30.183594 L 35.283203 30.375 L 38.34375 39.753906 C 38.34715 39.764286 38.350316 39.774716 38.353516 39.785156 C 38.427895 40.026172 38.470842 40.268599 38.5 40.509766 C 38.576424 39.947948 38.532029 39.363599 38.353516 38.785156 C 38.350316 38.774716 38.34715 38.764286 38.34375 38.753906 L 35.546875 30.183594 z" />
</svg>

<svg width="48" height="48" version="1" xmlns="http://www.w3.org/2000/svg">
  <path d="m24 5.0002c-1.8932 0.026691-3.2433 1.1516-3.877 3.0137l0.02344-0.083984-2.9746 9.0703h-10.031c-0.02187-3.46e-4 -0.042583-3.46e-4 -0.064453 0-1.1979 0.0383-2.278 0.59-3.0391 1.5039-1.6458 1.8636-1.297 4.7957 0.79297 6.1855l7.8867 5.6855-3.0605 9.3789c-0.0034 0.01038-0.00657 0.02081-0.00977 0.03125-0.46766 1.5154-0.027888 3.0766 1.1484 4.1445 0.0085 0.0079 0.01864 0.01574 0.02734 0.02344 1.4136 1.2395 3.3997 1.3971 4.9961 0.37109 0.03037-0.01938 0.06057-0.03961 0.08984-0.06055l8.0918-5.7637 8.0918 5.7637c0.02927 0.02094 0.05947 0.04117 0.08984 0.06055 1.5964 1.026 3.5825 0.86845 4.9961-0.37109 0.0087-0.0077 0.01879-0.01556 0.02734-0.02344 1.1763-1.068 1.6161-2.6292 1.1484-4.1445-0.0032-0.01044-0.0064-0.02087-0.0098-0.03125l-3.0605-9.3789 7.8867-5.6855c2.09-1.3898 2.4388-4.322 0.79297-6.1855-0.76102-0.9139-1.8412-1.4656-3.0391-1.5039-0.02187-3.46e-4 -0.04258-3.46e-4 -0.06445 0h-10.031l-2.9746-9.0703 0.02344 0.083984c-0.63359-1.8621-1.9837-2.987-3.8769-3.0137z" fill="#282828" opacity=".2"/>
  <path d="m24 4v33.5l8.0918 5.7637c0.02927 0.02094 0.059474 0.041167 0.089844 0.060547 1.5964 1.026 3.5825 0.86845 4.9961-0.37109 0.0087-0.0077 0.018794-0.015557 0.027344-0.023437 1.1763-1.068 1.6161-2.6292 1.1484-4.1445-0.0032-0.01044-0.006366-0.02087-0.009766-0.03125l-3.0605-9.3789 7.8867-5.6855c2.09-1.3898 2.4388-4.322 0.79297-6.1855-0.76102-0.9139-1.8412-1.4656-3.0391-1.5039-0.02187-3.46e-4 -0.042583-3.46e-4 -0.064453 0h-10.031l-2.9746-9.0703 0.023437 0.083984c-0.63362-1.8621-1.9838-2.987-3.877-3.0137z" fill="#fabd2f"/>
  <path d="m24 4c-1.8932 0.026691-3.2433 1.1516-3.877 3.0137l0.023437-0.083984-2.9746 9.0703h-10.031c-0.02187-3.46e-4 -0.042583-3.46e-4 -0.064453 0-1.1979 0.0383-2.278 0.59-3.0391 1.5039-1.6458 1.8636-1.297 4.7957 0.79297 6.1855l7.8867 5.6855-3.0605 9.3789c-0.0034 0.01038-0.0065656 0.02081-0.0097656 0.03125-0.46766 1.5154-0.027889 3.0766 1.1484 4.1445 0.00855 0.00788 0.018644 0.015737 0.027344 0.023437 1.4136 1.2395 3.3997 1.3971 4.9961 0.37109 0.03037-0.01938 0.060574-0.039607 0.089844-0.060547l8.0918-5.7637v-33.5z" fill="#7c6f64"/>
  <path d="m24 4.0002c-1.8932 0.026691-3.2433 1.1516-3.877 3.0137l0.02344-0.083984-2.9746 9.0703h-10.031c-0.02187-3.46e-4 -0.042583-3.46e-4 -0.064453 0-1.1979 0.0383-2.278 0.59-3.0391 1.5039-0.82677 0.93613-1.1478 2.1407-1 3.2852 0.091009-0.81813 0.41295-1.6205 1-2.2852 0.76101-0.9139 1.8412-1.4656 3.0391-1.5039 0.02187-3.46e-4 0.042583-3.46e-4 0.064453 0h10.031l2.9746-9.0703-0.02344 0.083984c0.63363-1.8621 1.9838-2.987 3.877-3.0137zm-11.547 26.184-2.7969 8.5703c-0.0034 0.01038-0.00657 0.02081-0.00977 0.03125-0.17851 0.57844-0.2229 1.1628-0.14648 1.7246 0.029158-0.24117 0.072105-0.48359 0.14648-0.72461 0.0032-0.01044 0.00637-0.02087 0.00977-0.03125l3.0605-9.3789z" fill="#ebdbb2" opacity=".2"/>
  <path d="m24 4.0002v1c1.8932 0.026691 3.2434 1.1516 3.877 3.0137l-0.02344-0.083984 2.9746 9.0703h10.031c0.02187-3.46e-4 0.04258-3.46e-4 0.06445 0 1.1979 0.0383 2.278 0.59 3.0391 1.5039 0.58705 0.6647 0.90899 1.467 1 2.2852 0.14777-1.1445-0.17323-2.349-1-3.2852-0.76101-0.9139-1.8412-1.4656-3.0391-1.5039-0.02187-3.46e-4 -0.04258-3.46e-4 -0.06445 0h-10.031l-2.9746-9.0703 0.02344 0.083984c-0.63363-1.8621-1.9838-2.987-3.877-3.0137zm11.547 26.184-0.26367 0.19141 3.0605 9.3789c0.0034 0.01038 0.0066 0.02081 0.0098 0.03125 0.07438 0.24102 0.11733 0.48344 0.14648 0.72461 0.07642-0.56182 0.03203-1.1462-0.14648-1.7246-0.0032-0.01044-0.0064-0.02087-0.0098-0.03125z" fill="#ebdbb2" opacity=".5"/>
</svg>
